X:1

T:White Hills of Dear Ireland, The

T:Fair Hills of Eire O!, The

M:C

L:1/8

R:Air

N:”Lively”

S:O’Neill – Music of Ireland (1903), No. 370

Z:AK/Fiddler’s Companion

K:G

GA/B/|cded cBAG|GABd efge|dBAG EDEG|G6:|

||de|=fefg e2 dB|d2 eg g2 de|=fefg e2 dB|B2 AG/A/ E2 de|

=fefg e2 dB|d2 eg g2 =f/e/d/B/|A2 AB EDEG|G6||

 

WHITE HORSE [1], THE. Irish, Air (6/8 time). D Major. Standard tuning. AABB. Source for notated version: Patrick MacDowell, "the distinguished sculptor: born in Belfast 1799: died 1870" (Joyce). Joyce (Old Irish Folk Music and Song), 1909; No. 535, pg. 286.

 

WHITE HORSE [2], THE. AKA and see " The Old Grey Mare Came (Out of the Wilderness)." American, Reel. USA, southwestern Pa. G Major. Standard tuning. AB. Source for notated version: Marion Yoders (Greene County, Pa., 1963) [Bayard]. Bayard (Dance to the Fiddle), 1981; No. 271B, pg. 228.

 

WHITE HORSE [3]. AKA and see "Ston(e)y Point [1]", "Wild Horse," "Pigtown Fling." American, Reel.

 

WHITE HORSE [4], THE.  American, Reel. B Dorian (three sharps). Standard tuning. AABB. A modern composition by Franklin Heyburn. Miller (Fiddler’s Throne), 2004; No. 268, pg. 160.

 

WHITE HORSE [5], THE. English, Country Dance Tune (2/4 time). A Major. Standard tuning. AABBCC. The tune, which appears unique to London publisher Charles and Samuel Thompson’s 1765 country dance collection, was included by Massachusetts fiddler Whittier Perkins in his music commonplace book of 1790. Thompson (Compleat Collection of 200 Favourite Country Dances, vol. 2), 1765; No. 121.

